X:16
T:The Boys of Tulla
R:reel
D:Snug in the Blanket,P.O'Brien,J.Gans,D.Sproule
S:Hughie MacCormack, fiddle, Co.Leitrim
N:related to The Humours of Tulla
Z:Paul Stewart Cranford (P.S.C.), <http://www.cranfordpub.com>
L:1/8
Q:333
M:C|
K:D
d2 Ad BdAB|d2 fd egfe|d2 Ad BdAd|[1faba feeA:|[2faba feea||
|:fe e/e/e fede|fede faba|feea fedB|[1ABde faba:|[2ABde fgaf|]
